X: 24147
T: Looking For A Partner
R: jig
M: 6/8
K: Cmajor
|(E3 E3)|F3 ^F3|G2^F G2F|(G3 G3)|
E2F ^F2G|A3 G3|(B,3 B,3|B,2)G, B,2D|
(F3 F3|F2)E D2E|(F3 F3|F2)E F2G|
B3 A3|G3 F3|(^D3 D3)|EG,A, B,CD|
(E3 E3)|F3 ^F3|G2^F G2F|(G3 G3)|
E2F ^F2G|A3 G3|(B3 B3|B3) GAB|
c2c cBA|c2c cBA|G2G GFE|"A"A3 G3|
FEF GFG|AGA BAB|c2G AGE|C3 "D7"D3||

